gama.ui.shared/icons_svg/light/generic/menu.redo.svg

<svg height="25" viewBox="-496.426 -3656.524 25 25" width="25" xmlns="http://www.w3.org/2000/svg"><g fill="none"><path d="m-492.0858-3656.0237h16.31997c2.12077 0 3.84 1.7193 3.84 3.84v16.32c0 2.1207-1.71923 3.84-3.84 3.84h-16.31997c-2.1208 0-3.84-1.7193-3.84-3.84v-16.32c0-2.1207 1.7192-3.84 3.84-3.84z" fill="#fff"/><path d="m-492.0858-3656.0237h16.31997c2.12077 0 3.84 1.7193 3.84 3.84v16.32c0 2.1207-1.71923 3.84-3.84 3.84h-16.31997c-2.1208 0-3.84-1.7193-3.84-3.84v-16.32c0-2.1207 1.7192-3.84 3.84-3.84z" stroke="#000" stroke-linecap="round" stroke-linejoin="round" stroke-width=".25"/><path d="m-476.867-3649.2c0-.2637.20705-.4707.4706-.4707.2635 0 .47057.207.47057.4707v4.7057c0 .2636-.20707.4706-.47057.4706h-4.7059c-.26353 0-.4706-.207-.4706-.4706 0-.2635.20707-.4707.4706-.4707h4.2353zm-14.11765 10.353c0 .2633-.21645.4704-.47059.4704-.26353 0-.47059-.2164-.47059-.4704 0-1.1673 0-1.7696.00943-1.8825.2447-4.48 3.96234-8 8.46116-8h.26354c2.92705 0 5.63764 1.5058 7.1906 3.9905.14115.2165.07527.5083-.1506.6495-.2165.1411-.50825.0752-.6494-.1505-1.37414-2.2025-3.79296-3.539-6.3906-3.539h-.26354c-4 0-7.30353 3.134-7.52 7.106 0 .0846 0 .7152-.00941 1.8352z" fill="#4f8034"/></g></svg>

<?xml version="1.0" encoding="UTF-8" standalone="no"?>
<!DOCTYPE svg PUBLIC "-//W3C//DTD SVG 1.1//EN" "http://www.w3.org/Graphics/SVG/1.1/DTD/svg11.dtd">
<svg version="1.1" xmlns="http://www.w3.org/2000/svg" xmlns:xl="http://www.w3.org/1999/xlink" xmlns:dc="http://purl.org/dc/elements/1.1/" viewBox="-496.4258 -3656.5237 25 25" width="25" height="25">
  <defs/>
  <g id="SOURCES" stroke-dasharray="none" fill="none" stroke="none" fill-opacity="1" stroke-opacity="1">
    <title>SOURCES</title>
    <g id="SOURCES_Calque_2">
      <title>Calque 2</title>
      <g id="Graphic_9250">
        <path d="M -492.0858 -3656.0237 L -475.76583 -3656.0237 C -473.64506 -3656.0237 -471.92583 -3654.3044 -471.92583 -3652.1837 L -471.92583 -3635.8637 C -471.92583 -3633.743 -473.64506 -3632.0237 -475.76583 -3632.0237 L -492.0858 -3632.0237 C -494.2066 -3632.0237 -495.9258 -3633.743 -495.9258 -3635.8637 L -495.9258 -3652.1837 C -495.9258 -3654.3044 -494.2066 -3656.0237 -492.0858 -3656.0237 Z" fill="white"/>
        <path d="M -492.0858 -3656.0237 L -475.76583 -3656.0237 C -473.64506 -3656.0237 -471.92583 -3654.3044 -471.92583 -3652.1837 L -471.92583 -3635.8637 C -471.92583 -3633.743 -473.64506 -3632.0237 -475.76583 -3632.0237 L -492.0858 -3632.0237 C -494.2066 -3632.0237 -495.9258 -3633.743 -495.9258 -3635.8637 L -495.9258 -3652.1837 C -495.9258 -3654.3044 -494.2066 -3656.0237 -492.0858 -3656.0237 Z" stroke="black" stroke-linecap="round" stroke-linejoin="round" stroke-width=".25"/>
      </g>
      <g id="Group_9315">
        <title>redo</title>
        <g id="Graphic_9316">
          <path d="M -476.867 -3649.2 C -476.867 -3649.4637 -476.65995 -3649.6707 -476.3964 -3649.6707 C -476.1329 -3649.6707 -475.92583 -3649.4637 -475.92583 -3649.2 L -475.92583 -3644.4943 C -475.92583 -3644.2307 -476.1329 -3644.0237 -476.3964 -3644.0237 L -481.1023 -3644.0237 C -481.36583 -3644.0237 -481.5729 -3644.2307 -481.5729 -3644.4943 C -481.5729 -3644.7578 -481.36583 -3644.965 -481.1023 -3644.965 L -476.867 -3644.965 Z M -490.98465 -3638.847 C -490.98465 -3638.5837 -491.2011 -3638.3766 -491.45524 -3638.3766 C -491.71877 -3638.3766 -491.92583 -3638.593 -491.92583 -3638.847 C -491.92583 -3640.0143 -491.92583 -3640.6166 -491.9164 -3640.7295 C -491.6717 -3645.2095 -487.95406 -3648.7295 -483.45524 -3648.7295 L -483.1917 -3648.7295 C -480.26465 -3648.7295 -477.55406 -3647.2237 -476.0011 -3644.739 C -475.85995 -3644.5225 -475.92583 -3644.2307 -476.1517 -3644.0895 C -476.3682 -3643.9484 -476.65995 -3644.0143 -476.8011 -3644.24 C -478.17524 -3646.4425 -480.59406 -3647.779 -483.1917 -3647.779 L -483.45524 -3647.779 C -487.45524 -3647.779 -490.75877 -3644.645 -490.97524 -3640.673 C -490.97524 -3640.5884 -490.97524 -3639.9578 -490.98465 -3638.8378 Z" fill="#4f8034"/>
        </g>
      </g>
    </g>
  </g>
</svg>
